X: 1
T: Twilight in Portroe
T: the Dawn
C: Sean Ryan
R: reel
D: De Dannan: Mist Covered Mountain.
Z: 2009 John Chambers <jc:trillian.mit.edu>
M: C|
L: 1/8
K: A
|: "A"A,2CE "D"D2FD | "E7"E2GB "A"A3c | "D"d2fd "A"edcA \
|1,3 "Bm"~B3c "E7"BAFE :|2,4 "E7"B2AB "A"cAA2 :|
|: "A"c2ec fcec | "A"A2Ac "E7"BAFD | "A"E2EF "F#m"ABcA \
|1,3 "Bm"defg "E7"aefe :|2,4 "D"df"E7"ed "A"cAA2 :|

%%sep 1 1 500
